img/icons/social/ds.svg

<svg width="18" height="20" viewBox="0 0 18 20" fill="none" xmlns="http://www.w3.org/2000/svg">
<path d="M7.38541 8.46436C6.84696 8.46436 6.42188 8.93668 6.42188 9.51291C6.42188 10.0891 6.85641 10.5615 7.38541 10.5615C7.92386 10.5615 8.34894 10.0891 8.34894 9.51291C8.35839 8.93668 7.92386 8.46436 7.38541 8.46436ZM10.8334 8.46436C10.2949 8.46436 9.86982 8.93668 9.86982 9.51291C9.86982 10.0891 10.3044 10.5615 10.8334 10.5615C11.3718 10.5615 11.7969 10.0891 11.7969 9.51291C11.7969 8.93668 11.3718 8.46436 10.8334 8.46436Z" fill="white"/>
<path d="M15.4228 0.539062H2.76464C1.6972 0.539062 0.828125 1.40813 0.828125 2.48502V15.2566C0.828125 16.3335 1.6972 17.2025 2.76464 17.2025H13.4769L12.9762 15.455L14.1854 16.5791L15.3284 17.6371L17.3594 19.4319V2.48502C17.3594 1.40813 16.4903 0.539062 15.4228 0.539062ZM11.7765 12.8761C11.7765 12.8761 11.4365 12.4699 11.1531 12.1109C12.3905 11.7614 12.8629 10.9868 12.8629 10.9868C12.4756 11.2419 12.1072 11.4213 11.7765 11.5441C11.3042 11.7425 10.8508 11.8748 10.4068 11.9503C9.49994 12.1204 8.66865 12.0731 7.96017 11.9409C7.42173 11.837 6.95885 11.6858 6.57155 11.5347C6.35428 11.4497 6.11812 11.3458 5.88196 11.2135C5.85362 11.1946 5.82528 11.1852 5.79694 11.1663C5.77805 11.1568 5.7686 11.1474 5.75916 11.1379C5.58912 11.0435 5.49466 10.9774 5.49466 10.9774C5.49466 10.9774 5.94808 11.7331 7.14778 12.092C6.86439 12.451 6.51487 12.8761 6.51487 12.8761C4.42721 12.81 3.63371 11.4402 3.63371 11.4402C3.63371 8.39848 4.994 5.93297 4.994 5.93297C6.35428 4.91275 7.64844 4.94109 7.64844 4.94109L7.7429 5.05445C6.04255 5.54566 5.2585 6.29193 5.2585 6.29193C5.2585 6.29193 5.46632 6.17857 5.81583 6.01799C6.8266 5.574 7.62955 5.4512 7.96017 5.42286C8.01685 5.41341 8.06408 5.40397 8.12076 5.40397C8.69699 5.3284 9.34879 5.3095 10.0289 5.38508C10.9263 5.48899 11.8899 5.75349 12.8723 6.29193C12.8723 6.29193 12.126 5.58345 10.5202 5.09224L10.6524 4.94109C10.6524 4.94109 11.9466 4.91275 13.3068 5.93297C13.3068 5.93297 14.6671 8.39848 14.6671 11.4402C14.6671 11.4402 13.8642 12.81 11.7765 12.8761Z" fill="white"/>
</svg>

<svg width="18" height="20" fill="none" xmlns="http://www.w3.org/2000/svg"><path d="M7.385 8.464c-.538 0-.963.473-.963 1.049s.434 1.049.963 1.049c.539 0 .964-.473.964-1.05.01-.575-.425-1.048-.964-1.048zm3.448 0c-.538 0-.963.473-.963 1.049s.434 1.049.963 1.049c.539 0 .964-.473.964-1.05 0-.575-.425-1.048-.964-1.048z" fill="#fff"/><path d="M15.423.54H2.765A1.94 1.94 0 00.828 2.484v12.772c0 1.077.87 1.946 1.937 1.946h10.712l-.5-1.748 1.208 1.124 1.143 1.058 2.031 1.795V2.485A1.941 1.941 0 0015.423.539zm-3.646 12.336s-.34-.406-.624-.765c1.237-.35 1.71-1.124 1.71-1.124a5.401 5.401 0 01-1.086.557c-.473.198-.926.33-1.37.406a6.617 6.617 0 01-2.447-.01 7.932 7.932 0 01-1.388-.405 5.526 5.526 0 01-.69-.322c-.028-.018-.057-.028-.085-.047a.13.13 0 01-.038-.028c-.17-.095-.264-.16-.264-.16s.453.755 1.653 1.114c-.284.359-.633.784-.633.784-2.088-.066-2.881-1.436-2.881-1.436 0-3.042 1.36-5.507 1.36-5.507 1.36-1.02 2.654-.992 2.654-.992l.095.113c-1.7.492-2.485 1.238-2.485 1.238s.208-.113.558-.274c1.01-.444 1.814-.567 2.144-.595.057-.01.104-.019.16-.019a7.7 7.7 0 014.752.888s-.746-.709-2.352-1.2l.132-.15s1.295-.03 2.655.991c0 0 1.36 2.465 1.36 5.507 0 0-.803 1.37-2.89 1.436z" fill="#fff"/></svg>
